X:3557
T:Croppies' March
T:Freedom for Ireland; Heather on the Hill, Lark's Neck, Ireland Forever
M:2/4
L:1/8
R:polka
K:G
D>E DB,|DE GA|Bd AB/2A/2|GE EG/2E/2|D>E DB,|DE GA|Bd AB/2A/2|1 G2 GE:|2
G2 G>A||
Bd dB|ce ec|Bd AB/2A/2|GE ED|Bd dB|ce e>f|g/2f/2e fd|e2 ef|
g/2f/2e fd|ed BA|Bd AB/2A/2|GE EG/2E/2|D>E DB,|DE GA|Bd AB/2A/2|G2 GE||


